packages/sources/icons/src/vitamix/pinterest-fill.svg

<svg width="16" height="16" viewBox="0 0 16 16" xmlns="http://www.w3.org/2000/svg"><path d="M8.9132 1.396C5.61472 0.942256 2.48697 2.99098 1.58506 6.19604C0.683157 9.4011 2.28348 12.7803 5.33453 14.1133C5.29463 13.6012 5.33125 13.086 5.4432 12.5847C5.56653 12.0253 6.3072 8.94266 6.3072 8.94266C6.15971 8.61206 6.086 8.2533 6.0912 7.89133C6.0912 6.90133 6.66253 6.16266 7.3732 6.16266C7.63153 6.1589 7.87874 6.26767 8.0505 6.46068C8.22225 6.65368 8.30159 6.91184 8.26786 7.168C8.26786 7.768 7.88253 8.676 7.6812 9.528C7.6005 9.84488 7.67518 10.1812 7.88237 10.4342C8.08956 10.6872 8.40463 10.8267 8.7312 10.81C9.99653 10.81 10.8445 9.18933 10.8445 7.276C10.8445 5.80933 9.8732 4.71066 8.08253 4.71066C7.21676 4.67702 6.37506 4.99989 5.7539 5.60392C5.13273 6.20795 4.78645 7.04029 4.79586 7.90666C4.77678 8.38221 4.9302 8.84864 5.22786 9.22C5.34213 9.30529 5.38617 9.45591 5.33586 9.58933C5.3052 9.712 5.22786 10.0047 5.1972 10.112C5.18426 10.1858 5.13703 10.2491 5.06995 10.2825C5.00287 10.3159 4.9239 10.3155 4.8572 10.2813C3.93453 9.912 3.49986 8.89666 3.49986 7.73733C3.49986 5.83933 5.0892 3.56733 8.2692 3.56733C10.7999 3.56733 12.4825 5.41866 12.4825 7.39866C12.4825 10.0047 11.0312 11.964 8.88653 11.964C8.23509 11.9848 7.61812 11.6716 7.25053 11.1333C7.25053 11.1333 6.8652 12.6773 6.7892 12.9693C6.63406 13.4738 6.40513 13.9525 6.10986 14.39C6.7252 14.5767 7.36453 14.67 8.0072 14.6673C9.77584 14.6687 11.4724 13.9665 12.7226 12.7154C13.9728 11.4643 14.6739 9.76731 14.6712 7.99866C14.6695 4.66949 12.2125 1.85167 8.91453 1.39666L8.9132 1.396Z"/></svg>

<svg width="16" height="16" xmlns="http://www.w3.org/2000/svg"><path d="M8.913 1.396a6.669 6.669 0 0 0-3.578 12.717 5.17 5.17 0 0 1 .108-1.528c.124-.56.864-3.642.864-3.642a2.493 2.493 0 0 1-.216-1.052c0-.99.572-1.728 1.282-1.728a.89.89 0 0 1 .895 1.005c0 .6-.385 1.508-.587 2.36a1.03 1.03 0 0 0 1.05 1.282c1.266 0 2.114-1.62 2.114-3.534 0-1.467-.972-2.565-2.762-2.565a3.164 3.164 0 0 0-3.287 3.196c-.02.475.134.942.432 1.313a.32.32 0 0 1 .108.37c-.03.122-.108.415-.139.522a.236.236 0 0 1-.34.17C3.935 9.911 3.5 8.896 3.5 7.736c0-1.898 1.59-4.17 4.77-4.17 2.53 0 4.213 1.852 4.213 3.832 0 2.606-1.452 4.565-3.596 4.565a1.907 1.907 0 0 1-1.636-.83s-.386 1.543-.462 1.835a5.351 5.351 0 0 1-.68 1.421 6.44 6.44 0 0 0 1.898.277A6.659 6.659 0 0 0 14.671 8a6.668 6.668 0 0 0-5.756-6.602l-.002-.001Z"/></svg>
